svgs/sharp-solid/cart-flatbed-empty.svg

<svg xmlns="http://www.w3.org/2000/svg" viewBox="0 0 640 512"><!--! Font Awesome Pro 6.6.0 by @fontawesome - https://fontawesome.com License - https://fontawesome.com/license (Commercial License) Copyright 2024 Fonticons, Inc. --><path d="M0 0L32 0 96 0l32 0 0 32 0 352 480 0 32 0 0 64-32 0-66.7 0c1.8 5 2.7 10.4 2.7 16c0 26.5-21.5 48-48 48s-48-21.5-48-48c0-5.6 1-11 2.7-16l-197.5 0c1.8 5 2.7 10.4 2.7 16c0 26.5-21.5 48-48 48s-48-21.5-48-48c0-5.6 1-11 2.7-16L96 448l-32 0 0-32L64 64 32 64 0 64 0 0z"/></svg>

<svg xmlns="http://www.w3.org/2000/svg" viewBox="0 0 640 512"><!--! Font Awesome Pro 6.4.2 by @fontawesome - https://fontawesome.com License - https://fontawesome.com/license (Commercial License) Copyright 2023 Fonticons, Inc. --><path d="M0 0H32 96h32V32 384H608h32v64H608 541.3c1.8 5 2.7 10.4 2.7 16c0 26.5-21.5 48-48 48s-48-21.5-48-48c0-5.6 1-11 2.7-16H253.3c1.8 5 2.7 10.4 2.7 16c0 26.5-21.5 48-48 48s-48-21.5-48-48c0-5.6 1-11 2.7-16H96 64V416 64H32 0V0z"/></svg>
